src/images/icon/icon_sleep_normal.svg

<svg height="20" viewBox="0 0 20 20" width="20" xmlns="http://www.w3.org/2000/svg"><g fill="none"><path d="m6 6c0 4.418278 3.581722 8 8 8 .6533722 0 1.2884503-.0783262 1.8963568-.2261011-1.2441979 1.9403412-3.4201184 3.2261011-5.89639334 3.2261011-3.86600054 0-6.99996346-3.1340244-6.99996346-7.00002193 0-2.47621685 1.28574068-4.65212962 3.22604521-5.89654753-.14773294.6082321-.22604521 1.24325538-.22604521 1.89656946z" stroke="#b6c2cd" stroke-width="1.5"/><g fill="#36435c"><path d="m10.5179294 10.2162293h2.8256017v-1.12329556h-1.7035609l1.5742877-1.58652315c.437186-.44004521.1606502-1.11823752-.4601957-1.11823752h-2.7540622v1.123717h1.631603l-1.5747061 1.58652317c-.44053281.44341721-.15604818 1.11781606.4610325 1.11781606z"/><path d="m14.7527674 6h3.153816v-1.17375029h-1.9014419l1.7571527-1.6577846c.4879683-.45981062.1793108-1.16846511-.5136508-1.16846511h-3.0739666v1.1741907h1.8211256l-1.7576197 1.65778463c-.4917039.46333407-.1741744 1.16802467.5145847 1.16802467z"/></g></g></svg>

<?xml version="1.0" encoding="UTF-8"?>
<svg width="20px" height="20px" viewBox="0 0 20 20" version="1.1" xmlns="http://www.w3.org/2000/svg" xmlns:xlink="http://www.w3.org/1999/xlink">
    <title>icon_sleep_normal</title>
    <g id="Dashboard" stroke="none" stroke-width="1" fill="none" fill-rule="evenodd">
        <g id="10-开发空间-列表交互补充" transform="translate(-161.000000, -1203.000000)" fill-rule="nonzero">
            <g id="疑问备份-4" transform="translate(161.000000, 1203.000000)">
                <path d="M6,6 C6,10.418278 9.581722,14 14,14 C14.6533722,14 15.2884503,13.9216738 15.8963568,13.7738989 C14.6521589,15.7142401 12.4762384,17 9.99996346,17 C6.13396292,17 3,13.8659756 3,9.99997807 C3,7.52376122 4.28574068,5.34784845 6.22604521,4.10343054 C6.07831227,4.71166264 6,5.34668592 6,6 Z" id="形状结合" stroke="#B6C2CD" stroke-width="1.5"></path>
                <path d="M10.5179294,10.2162293 L13.3435311,10.2162293 L13.3435311,9.09293374 L11.6399702,9.09293374 L13.2142579,7.50641059 C13.6514439,7.06636538 13.3749081,6.38817307 12.7540622,6.38817307 L10,6.38817307 L10,7.51189007 L11.631603,7.51189007 L10.0568969,9.09841324 C9.61636409,9.54183045 9.90084872,10.2162293 10.5179294,10.2162293 Z" id="形状" fill="#36435C"></path>
                <path d="M14.7527674,6 L17.9065834,6 L17.9065834,4.82624971 L16.0051415,4.82624971 L17.7622942,3.16846511 C18.2502625,2.70865449 17.941605,2 17.2486434,2 L14.1746768,2 L14.1746768,3.1741907 L15.9958024,3.1741907 L14.2381827,4.83197533 C13.7464788,5.2953094 14.0640083,6 14.7527674,6 Z" id="形状备份" fill="#36435C"></path>
            </g>
        </g>
    </g>
</svg>
